X: 10294
T: Doireann's
R: waltz
M: 3/4
K: Emajor
B|:e/B/ e/f/ =g/a/|f =d B|b3/2 a/ a/b/|a/g/ e3/2 f/|=g2 f/e/|f B3/2 c/|=d e e/d/|B3|
e g b|a3/2 b/ a|g e3/2 f/|e/=d/ B A|G3/2 G/ F/G/|A2 G/A/|Bed|e2 B:|
a/g/|:f B3/2 c/|d/e/ f/g/ a/f/|g b3/2 g/|e3/2f/ g|ac3/2a/|gB3/2g/|a3/2g/ f/e/|f3/2e/d|
ca3/2c/|a2c/B/|Beg|b2-b/ g/|a3/2g/ f/e/|d/e/ fd|e3-|e3/2a/ a/g/:|

